X: 2
T: The Cuil Aodha
R: jig
M: 6/8
L: 1/8
K: Dmaj
A|:dcA GEA|DED F2 G|AGF GED|CB,A, GB,C|
DED DCD|EFE cde|dcA GEA|DED DFA:|
d2 d dcd|eAB cde|dcA G2 A|GED =CDE|
DFA dcd|eAB cde|dcA GEA|DED D3:|


Tune 825	Setting 21770

